X:1
T:Les trois terreurs
M:C
L:1/8
Q:180
C:(c) Greg Anderson, 29 May 2000
R:Reel
H:Our downstairs neighbor, Dominique, dubbed our girls "les trois
H:terreurs" for the numerous adventures and misadventures around the
H:apartments
K:D
FG Ad fd AF|GE ED E2 ED|CE B,E A,C EA|BA GE FA EC|DC DE FA dA|
BG ED E2 ED|CE B,E A,C EC|1DF EC D2 AG:|2DF Ac d2 de
|:fd cd Bd Ad|AF Ad (3fga gf|ge ce Be Ae|(3cde af ge ce|
fd cd Bd Ad|AF Ad (3fga gf|ge ce Ae ge|1fd dc d2 ef:|2fd dc d2 AG||
